flags/sn.svg

<svg width="512" height="512" viewBox="0 0 512 512" fill="none" xmlns="http://www.w3.org/2000/svg">
<path d="M128 0L384 -1.11901e-05L384 512L128 512L128 0Z" fill="var(--flag-palette-yellow, #ffda44)"/>
<path d="M368 0L512 -6.29444e-06L512 512L368 512L368 0Z" fill="var(--flag-palette-bright-red, #d80027)"/>
<path d="M0 0L144 -6.29444e-06L144 512L0 512L0 0Z" fill="var(--flag-palette-dark-green, #496e2d)"/>
<path d="M256.001 157.553L278.104 225.579H349.63L291.764 267.621L313.867 335.647L256.001 293.605L198.134 335.647L220.237 267.621L162.371 225.579H233.898L256.001 157.553Z" fill="var(--flag-palette-dark-green, #496e2d)"/>
</svg>

<svg xmlns="http://www.w3.org/2000/svg" width="512" height="512" fill="none"><path fill="var(--flag-palette-yellow, #ffda44)" d="M128 0h256v512H128z"/><path fill="var(--flag-palette-bright-red, #d80027)" d="M368 0h144v512H368z"/><path fill="var(--flag-palette-dark-green, #496e2d)" d="M0 0h144v512H0zm256 157.6 22.1 68h71.5l-57.8 42 22 68-57.8-42-57.9 42 22.1-68-57.8-42h71.5z"/></svg>
